X: 6b
T: Tripping up the Stairs
R:jig
M:6/8
L:1/8
K:D
A | "D" FAA "G" GBB | "D" FAd fed | "A" cBc ABc | "D" dfe dAG |
"D" FAA "G" GBB | "D" FAd fed | "A" cBc ABc | "D" dfe d2  :|
|: c | "Bm" dBB    fBB | fgf     fed | "A" cAA eAA | efe edc |
"Bm" dBB    fBB | fgf     fed | "A" cBc ABc | "D" dfe d2  :|


